X: 13876
T: Fox In The Oven
R: jig
M: 6/8
K: Amixolydian
|:eAA fed|eAA ABd|eAA g2 e|dBG GBd|
eAA fed|eAB AGE|GAB dge|dBA A2 g:|
|:eaa ege|dBA A2 g|eaa ege|dBA G2 g|
eaf g2 e|dBA AGE|GAB dge|1 dBA A2 g:|2 dBA A3||

